proprietary/assets/icons/gebouwen/leegstand-en-tijdelijk-gebruik.svg

<svg enable-background="new 0 0 64 64" height="64" viewBox="0 0 64 64" width="64" xmlns="http://www.w3.org/2000/svg"><path d="m0 0h64v64h-64z" fill="none"/><path d="m33 31h3.7c2.2-1.4 4.6-2.4 7.3-2.8v-22.2c0-1.1-.9-2-2-2h-32c-1.1 0-2 .9-2 2v47h15v-9h5.2c.6-3.8 2.3-7.2 4.8-9.8zm0-20h6v6h-6zm0 10h6v6h-6zm-14 16h-6v-6h6zm0-10h-6v-6h6zm0-10h-6v-6h6zm10 20h-6v-6h6zm0-10h-6v-6h6zm0-10h-6v-6h6z"/><path d="m47 31.2c-8.7 0-15.8 7.1-15.8 15.8s7.1 15.8 15.8 15.8 15.8-7.1 15.8-15.8-7.1-15.8-15.8-15.8zm0 27.7c-6.6 0-11.9-5.3-11.9-11.9s5.3-11.9 11.9-11.9 11.9 5.3 11.9 11.9-5.3 11.9-11.9 11.9z"/><path d="m54.5 46.8-7-.7-.6-7.7c-.1-.5-.4-.9-1-.9-.5 0-.9.4-1 .9l-.7 9.1c0 .9.7 1.6 1.5 1.6 0 0 8.7-.6 8.7-.6.6-.1 1-.3 1-.8.1-.6-.3-.8-.9-.9z"/></svg>

<?xml version="1.0" encoding="utf-8"?>
<!-- Generator: Adobe Illustrator 22.1.0, SVG Export Plug-In . SVG Version: 6.00 Build 0)  -->
<!DOCTYPE svg PUBLIC "-//W3C//DTD SVG 1.1//EN" "http://www.w3.org/Graphics/SVG/1.1/DTD/svg11.dtd">
<svg version="1.1" xmlns="http://www.w3.org/2000/svg" xmlns:xlink="http://www.w3.org/1999/xlink" x="0px" y="0px" width="64px"
	 height="64px" viewBox="0 0 64 64" style="enable-background:new 0 0 64 64;" xml:space="preserve">
<style type="text/css">
	.st0{fill:none;}
</style>
<g id="Box">
	<rect class="st0" width="64" height="64"/>
</g>
<g id="Icon">
	<g>
		<path d="M33,31h3.7c2.2-1.4,4.6-2.4,7.3-2.8V6c0-1.1-0.9-2-2-2H10C8.9,4,8,4.9,8,6v47h15v-9h5.2c0.6-3.8,2.3-7.2,4.8-9.8V31z
			 M33,11h6v6h-6V11z M33,21h6v6h-6V21z M19,37h-6v-6h6V37z M19,27h-6v-6h6V27z M19,17h-6v-6h6V17z M29,37h-6v-6h6V37z M29,27h-6v-6
			h6V27z M29,17h-6v-6h6V17z"/>
		<path d="M47,31.2c-8.7,0-15.8,7.1-15.8,15.8c0,8.7,7.1,15.8,15.8,15.8c8.7,0,15.8-7.1,15.8-15.8S55.7,31.2,47,31.2z M47,58.9
			c-6.6,0-11.9-5.3-11.9-11.9S40.4,35.1,47,35.1S58.9,40.4,58.9,47S53.6,58.9,47,58.9z"/>
		<path d="M54.5,46.8L54.5,46.8l-7-0.7l-0.6-7.7c-0.1-0.5-0.4-0.9-1-0.9c-0.5,0-0.9,0.4-1,0.9l-0.7,9.1c0,0.9,0.7,1.6,1.5,1.6
			c0,0,8.7-0.6,8.7-0.6c0.6-0.1,1-0.3,1-0.8C55.5,47.1,55.1,46.9,54.5,46.8z"/>
	</g>
</g>
</svg>
